!!!SOCIAL_FUNCTION:	songs of the bear dance
!!!PDT:	1922
!!!OTL: No_10_Bear_Dance_Song_(f).krn
!!!REG: Southwest
!!!LANG: Non-Tone
!!!LING_GROUP: Uto-Aztecan
**kern
*staff1
=1-
*clefF4
*k[b-e-a-]
*M2/4
4B-\
16.B-\LL
32F\JK
8F\J
=2
4B-\
4B-\
=3
4c\
8.c\L
16G\Jk
=4
16d\LL
16c\
16B-\
16B-\JJ
16B-\LK
8.B-\J
=5
4B-\
8B-\L
16F\L
16F\JJ
=6
16B-\LL
16A-\
16F\
16E-\JJ
16E-\LK
8.E-\J
=7
16C/LL
16C/J
8C/J
16C/LL
16C/J
8C/J
=8
16C/LL
16C/J
8C/J
16C/LL
16C/J
8C/J
=9||
*M3/4
16E-/LL
16C/J
8C/J
16E-/LL
16C/J
8C/J
16E-\LL
16E-\
16E-\
16E-\JJ
=10||
*M2/4
16C/LL
16C/J
8C/J
16C/LL
16C/J
8C/J
=11||
*M3/4
16E-/LL
16C/J
8C/J
16E-/LL
16C/J
8C/J
16E-/LL
16C/
16C/
16C/JJ
=12||
*M2/4
16C/LL
16C/J
8C/J
16C/LL
16C/J
8C/J
=13
16C/LL
16C/J
8C/J
16C/LL
16C/J
8C/J
==
*-
